converted-html/public/images/madeby.svg

<?xml version="1.0" encoding="UTF-8" standalone="no"?>
<svg viewBox="0 0 1398 249" version="1.1" xmlns="http://www.w3.org/2000/svg" xmlns:xlink="http://www.w3.org/1999/xlink" xmlns:sketch="http://www.bohemiancoding.com/sketch/ns">
    <!-- Generator: Sketch Beta 3.0.2 (7779) - http://www.bohemiancoding.com/sketch -->
    <title>madeby</title>
    <description>Created with Sketch Beta.</description>
    <defs></defs>
    <g id="Page-1" stroke="none" stroke-width="1" fill="none" fill-rule="evenodd" sketch:type="MSPage">
        <g id="madeby" sketch:type="MSArtboardGroup">
            <path d="M112.763819,69.72 C103.898477,56.3952485 101.74701,39.0988037 107.788945,23.24 C103.044377,19.2739006 96.4169939,16.8125695 89.5477387,16.6 C82.4594865,26.1880034 80.6323612,39.4232519 86.2311558,51.46 C91.2491484,62.1234372 101.649708,68.780219 112.763819,69.72 C112.763819,69.72 101.649708,68.780219 112.763819,69.72 L112.763819,69.72 L112.763819,69.72 Z M159.19598,46.48 C167.246108,30.5723149 164.77562,12.8332365 155.879397,0 C139.458576,0.468284911 124.362359,9.62213996 117.738693,24.9 C109.714328,40.7965355 112.184817,58.5356139 121.055276,71.38 C137.49093,70.9117151 152.598078,61.7467104 159.19598,46.48 C159.867436,46.2710091 152.598078,61.7467104 159.19598,46.48 L159.19598,46.48 L159.19598,46.48 Z M275.276382,137.78 C262.581949,138.33197 251.169178,142.522765 242.110553,149.4 C241.994854,150.915442 242.038961,152.268026 242.110553,154.38 C242.038961,196.603976 213.071474,233.05724 174.120603,244.02 C207.745514,233.389843 232.489725,201.304762 232.160804,164.34 C232.489725,116.014324 193.984028,78.02 147.58794,78.02 C100.994754,78.02 62.5000835,116.014324 63.0150754,164.34 C62.5000835,201.371283 87.3325091,233.500711 121.055276,244.02 C82.0286029,233.179195 52.9508471,196.670497 53.0653266,154.38 C52.9508471,148.432008 53.3698667,143.321012 54.7236181,137.78 C24.5236743,138.753267 0,163.16631 0,194.22 C0,224.187833 24.8985866,249 54.7236181,249 C55.0790256,249 55.2775086,248.977826 54.7236181,249 L273.61809,249 C274.490928,248.977826 274.678384,249 275.276382,249 C275.097404,249 275.28486,248.977826 275.276382,249 L276.934673,249 C306.501821,247.492201 330,223.300892 330,194.22 C329.988973,162.911315 305.068333,138.33197 275.276382,137.78 L275.276382,137.78 L275.276382,137.78 Z M1357,161 L1318,161 L1318,247 L1357,247 C1380.07645,247 1398,227.606869 1398,204 C1398,180.022792 1379.53359,161 1357,161 L1357,161 L1357,161 Z M1352,231 L1335,231 L1335,177 L1352,177 C1367.1687,177 1378,189.014201 1378,204 C1378,218.976669 1367.15966,231 1352,231 L1352,231 L1352,231 Z M1245,219 C1245.28441,226.419924 1239.39441,232.234226 1232,232 C1224.62382,232.234226 1218.71559,226.410896 1219,219 L1219,161 L1201,161 L1201,218 C1201,235.330974 1214.84059,249 1232,249 C1249.15941,249 1263,235.330974 1263,218 L1263,161 L1245,161 L1245,219 L1245,219 Z M1112,159 C1087.61281,159 1067,178.994994 1067,204 C1067,228.815779 1087.61281,249 1112,249 C1137.38719,249 1158,228.815779 1158,204 C1158,178.994994 1137.38719,159 1112,159 L1112,159 L1112,159 Z M1112,232 C1096.63451,232 1085,219.316009 1085,204 C1085,188.683991 1096.63451,176 1112,176 C1127.36549,176 1139,188.683991 1139,204 C1139,219.307026 1127.36549,232 1112,232 L1112,232 L1112,232 Z M993,161 L975,161 L975,247 L1028,247 L1028,231 L993,231 L993,161 L993,161 Z M864,204 C864,229.014017 884.676839,249 910,249 C914.690437,249 919.431334,248.098919 924,247 L924,228 C920.709473,230.095314 915.587853,232.086704 910,232 C894.194893,232.086704 882.483155,219.363436 882,204 C882.483155,188.636564 894.194893,175.913296 910,176 C915.596918,175.913296 920.528176,177.904686 924,180 L924,161 C919.431334,159.720865 914.690437,159 910,159 C884.676839,159 864,178.994994 864,204 C864,204.090108 864,178.994994 864,204 L864,204 L864,204 Z M745,246 L763,246 L770,231 L798,231 L805,246 L823,246 L784,158 L745,246 L745,246 Z M775,216 L784,195 L793,216 L775,216 L775,216 Z M659,215 L629,158 L612,246 L628,246 L636,205 L659,248 L681,205 L689,246 L705,246 L688,158 L659,215 L659,215 Z M539,161 L521,161 L521,247 L574,247 L574,231 L539,231 L539,161 L539,161 Z M398,246 L416,246 L423,231 L451,231 L458,246 L476,246 L437,158 L398,246 L398,246 Z M428,216 L437,195 L446,216 L428,216 L428,216 Z" id="Path-4" fill="#9E9EA8" sketch:type="MSShapeGroup"></path>
            <path d="M462.007812,73.5390625 C460.929682,74.0546901 459.640632,74.535154 458.140625,74.9804688 C456.640618,75.4257835 455.023446,75.824217 453.289062,76.1757812 C451.554679,76.5273455 449.785165,76.7968741 447.980469,76.984375 C446.175772,77.1718759 444.429696,77.265625 442.742188,77.265625 C437.914038,77.265625 433.484395,76.468758 429.453125,74.875 C425.421855,73.281242 421.964858,71.0547018 419.082031,68.1953125 C416.199204,65.3359232 413.949227,61.9258011 412.332031,57.9648438 C410.714836,54.0038864 409.90625,49.6562737 409.90625,44.921875 C409.90625,39.5780983 410.656243,34.7617402 412.15625,30.4726562 C413.656257,26.1835723 415.789049,22.5273589 418.554688,19.5039062 C421.320326,16.4804536 424.671855,14.1484457 428.609375,12.5078125 C432.546895,10.8671793 436.976538,10.046875 441.898438,10.046875 C443.773447,10.046875 445.507805,10.1523427 447.101562,10.3632812 C448.69532,10.5742198 450.230461,10.8671856 451.707031,11.2421875 C453.183601,11.6171894 454.64843,12.0859347 456.101562,12.6484375 C457.554695,13.2109403 459.05468,13.8437465 460.601562,14.546875 L460.601562,28.1875 C458.773428,26.9687439 457.074227,25.9492229 455.503906,25.1289062 C453.933586,24.3085896 452.433601,23.6523462 451.003906,23.1601562 C449.574212,22.6679663 448.191413,22.3281259 446.855469,22.140625 C445.519525,21.9531241 444.148445,21.859375 442.742188,21.859375 C439.835923,21.859375 437.164075,22.3867135 434.726562,23.4414062 C432.28905,24.496099 430.203134,25.9843654 428.46875,27.90625 C426.734366,29.8281346 425.386724,32.1249866 424.425781,34.796875 C423.464839,37.4687634 422.984375,40.4452961 422.984375,43.7265625 C422.984375,47.1015794 423.499995,50.113268 424.53125,52.7617188 C425.562505,55.4101695 427.039053,57.6484284 428.960938,59.4765625 C430.882822,61.3046966 433.191393,62.7109326 435.886719,63.6953125 C438.582045,64.6796924 441.593733,65.171875 444.921875,65.171875 C447.640639,65.171875 450.359361,64.820316 453.078125,64.1171875 C455.796889,63.414059 458.773421,62.3359448 462.007812,60.8828125 L462.007812,73.5390625 L462.007812,73.5390625 Z M622,91.046875 L609.420349,91.046875 L609.420349,76.4032069 L566.649538,76.4032069 L566.649538,91.046875 L554,91.046875 L554,64.8014602 L559.311408,64.8014602 L585.379239,10.046875 L592.507708,10.046875 L616.758479,64.8014602 L622,64.8014602 L622,91.046875 L622,91.046875 Z M603,64.046875 L587.640271,30.046875 L572,64.046875 L603,64.046875 L603,64.046875 Z M726.952955,45.5092181 C729.040622,58.4046801 736.371067,64.8523143 748.944511,64.8523143 C752.977503,64.8523143 756.844372,64.1748455 760.545235,62.8198876 C764.246098,61.4649296 768.018075,59.5726891 771.861279,57.1431093 L771.861279,69.4778373 C769.868506,70.7860726 767.911349,71.9074003 765.989747,72.8418541 C764.068145,73.7763078 762.075402,74.5589011 760.01146,75.1896574 C757.947517,75.8204137 755.753128,76.2876336 753.428227,76.5913311 C751.103326,76.8950285 748.541228,77.046875 745.741858,77.046875 C740.665033,77.046875 736.157639,76.1007548 732.219542,74.2084859 C728.281444,72.316217 724.960207,69.7815492 722.25573,66.6044064 C719.551253,63.4272636 717.499203,59.7712681 716.099517,55.6363101 C714.699832,51.5013522 714,47.2146099 714,42.7759545 C714,37.8700722 714.747278,33.4081224 716.241858,29.3899712 C717.736437,25.37182 719.835933,21.9260735 722.54041,19.0526281 C725.244887,16.1791828 728.471232,13.9598884 732.219542,12.3946783 C735.967851,10.8294683 740.095675,10.046875 744.603136,10.046875 C748.968257,10.046875 752.894434,10.7827463 756.381785,12.254511 C759.869137,13.7262757 762.846389,15.9338896 765.313631,18.8774189 C767.780873,21.8209483 769.678723,25.5119853 771.007238,29.9506407 C772.335753,34.3892961 773,39.5754367 773,45.5092181 L726.952955,45.5092181 L726.952955,45.5092181 Z M760,37.046875 C759.809934,32.1129296 758.360705,28.2128218 755.652268,25.3464345 C752.943831,22.4800472 749.28512,21.046875 744.676026,21.046875 C739.639284,21.046875 735.659842,22.4330579 732.737581,25.2054653 C729.81532,27.9778727 727.902812,31.9249698 727,37.046875 L760,37.046875 L760,37.046875 Z M894.703955,10.046875 L899.327684,10.046875 L927,76.046875 L913.338983,76.046875 L896.59548,33.4072162 L879.081356,76.046875 L865,76.046875 L894.703955,10.046875 L894.703955,10.046875 Z M1052.71356,36.8889252 L1052.71356,33.4548248 C1052.71356,29.3899509 1051.74357,26.4815072 1049.80355,24.7294064 C1047.86353,22.9773056 1044.90623,22.1012683 1040.93156,22.1012683 C1037.38275,22.1012683 1033.84581,22.9539446 1030.32066,24.6593227 C1026.7955,26.3647008 1023.4715,29.0628956 1020.34854,32.753988 L1020.34854,18.8073353 C1025.41152,12.9669992 1032.62733,10.046875 1041.9962,10.046875 C1045.30842,10.046875 1048.40767,10.4673729 1051.29404,11.3083813 C1054.18041,12.1493897 1056.6882,13.4342443 1058.81749,15.1629838 C1060.94678,16.8917233 1062.62653,19.0993372 1063.85678,21.7858917 C1065.08704,24.4724463 1065.70215,27.637861 1065.70215,31.2822306 L1065.70215,64.4318122 C1065.70215,65.6466021 1065.90325,66.4992784 1066.30545,66.9898666 C1066.70765,67.4804549 1067.31094,67.7257453 1068.11534,67.7257453 C1068.77778,67.7257453 1069.72412,67.4220524 1070.95437,66.8146574 C1072.18463,66.2072625 1073.53316,65.3662667 1075,64.2916449 L1075,72.0709336 C1073.53316,73.05211 1072.24377,73.8580643 1071.13181,74.4888206 C1070.01985,75.1195769 1068.99071,75.6218383 1068.04436,75.9956198 C1067.09801,76.3694013 1066.18716,76.6380527 1065.31179,76.8015821 C1064.43641,76.9651115 1063.50191,77.046875 1062.50824,77.046875 C1059.66919,77.046875 1057.45713,76.5446136 1055.87199,75.5400758 C1054.28685,74.535538 1053.18674,72.841866 1052.57161,70.4590089 C1049.73256,72.7016979 1046.84623,74.3603285 1043.91255,75.4349503 C1040.97886,76.5095721 1038.02156,77.046875 1035.04056,77.046875 C1032.62736,77.046875 1030.43896,76.6146966 1028.47529,75.7503269 C1026.51161,74.8859571 1024.82003,73.729588 1023.40051,72.2811846 C1021.98098,70.8327813 1020.89269,69.1624702 1020.13561,67.2702014 C1019.37853,65.3779325 1019,63.3805675 1019,61.2780465 C1019,58.3345172 1019.54414,55.8348909 1020.63245,53.7790926 C1021.72075,51.7232943 1023.23489,49.9361783 1025.1749,48.4176909 C1027.11492,46.8992035 1029.4571,45.5559464 1032.20152,44.3878792 C1034.94594,43.219812 1037.97421,42.0517623 1041.28644,40.8836951 L1052.71356,36.8889252 L1052.71356,36.8889252 Z M1053,44.046875 C1050.19999,44.9771122 1047.53277,45.930591 1044.99828,46.9073401 C1042.46378,47.8840892 1040.23104,48.9538459 1038.3,50.1166424 C1036.36896,51.279439 1034.83621,52.5817515 1033.70172,54.0236192 C1032.56724,55.4654869 1032,57.1398887 1032,59.046875 C1032,60.3492071 1032.24138,61.5584973 1032.72414,62.674782 C1033.2069,63.7910666 1033.85862,64.7445455 1034.67931,65.5352471 C1035.5,66.3259487 1036.50172,66.9422216 1037.68448,67.3840843 C1038.86725,67.825947 1040.13448,68.046875 1041.48621,68.046875 C1043.56208,68.046875 1045.55344,67.5817634 1047.46034,66.6515262 C1049.36725,65.721289 1051.21378,64.442232 1053,62.8143169 L1053,44.046875 L1053,44.046875 Z M1225,11.046875 L1225,76.046875 L1212.04785,76.046875 L1212.04785,48.2805707 L1179.95215,48.2805707 L1179.95215,76.046875 L1167,76.046875 L1167,11.046875 L1179.95215,11.046875 L1179.95215,36.6936141 L1212.04785,36.6936141 L1212.04785,11.046875 L1225,11.046875 L1225,11.046875 Z M1353.94999,10.046875 C1359.00394,10.046875 1363.67174,10.8645098 1367.95355,12.4998039 C1372.23537,14.135098 1375.93218,16.4127948 1379.04409,19.3329629 C1382.15601,22.2531309 1384.57766,25.7222385 1386.3091,29.7403896 C1388.04054,33.7585408 1388.90625,38.1504077 1388.90625,42.9161219 C1388.90625,48.0088949 1388.05224,52.6577326 1386.3442,56.8627746 C1384.63615,61.0678165 1382.2496,64.6654096 1379.18448,67.6556616 C1376.11936,70.6459137 1372.44595,72.958652 1368.16413,74.5939461 C1363.88232,76.2292402 1359.14432,77.046875 1353.94999,77.046875 C1348.98964,77.046875 1344.42713,76.1941987 1340.2623,74.4888206 C1336.09748,72.7834425 1332.50596,70.4239821 1329.48763,67.4103687 C1326.46931,64.3967553 1324.11786,60.7991623 1322.43321,56.6174817 C1320.74856,52.4358011 1319.90625,47.8687268 1319.90625,42.9161219 C1319.90625,38.2905757 1320.77196,33.9804724 1322.5034,29.9856825 C1324.23484,25.9908927 1326.63309,22.5101046 1329.69821,19.5432139 C1332.76334,16.5763232 1336.36655,14.2519043 1340.50798,12.5698876 C1344.6494,10.8878708 1349.13003,10.046875 1353.94999,10.046875 L1353.94999,10.046875 Z M1353.84232,22.046875 C1350.83465,22.046875 1348.05025,22.5831706 1345.48904,23.655778 C1342.92782,24.7283854 1340.70735,26.2090277 1338.82756,28.0977494 C1336.94777,29.9864711 1335.49095,32.2365811 1334.45707,34.8481469 C1333.42318,37.4597126 1332.90625,40.3044113 1332.90625,43.3823281 C1332.90625,46.7866906 1333.41144,49.8878785 1334.42182,52.6859847 C1335.43221,55.4840909 1336.86553,57.8741041 1338.72182,59.856096 C1340.57812,61.8380879 1342.78684,63.3653646 1345.34805,64.437972 C1347.90927,65.5105794 1350.74066,66.046875 1353.84232,66.046875 C1357.22594,66.046875 1360.28055,65.522238 1363.00625,64.4729481 C1365.73195,63.4236583 1368.0464,61.9313574 1369.94969,59.9960006 C1371.85298,58.0606438 1373.32155,55.7056064 1374.35543,52.9308178 C1375.38932,50.1560291 1375.90625,47.0198655 1375.90625,43.5222327 C1375.90625,40.3976808 1375.35407,37.529665 1374.24969,34.9180992 C1373.14532,32.3065334 1371.61801,30.0447648 1369.66773,28.1327256 C1367.71744,26.2206863 1365.39124,24.7283854 1362.68904,23.655778 C1359.98684,22.5831706 1357.03796,22.046875 1353.84232,22.046875 L1353.84232,22.046875 Z" id="сделано" fill="#C0C0CC" sketch:type="MSShapeGroup"></path>
        </g>
    </g>
</svg>

<svg viewBox="0 0 1398 249" xmlns="http://www.w3.org/2000/svg" xmlns:sketch="http://www.bohemiancoding.com/sketch/ns"><title>madeby</title><g sketch:type="MSArtboardGroup" fill="none"><path d="M112.764 69.72c-8.865-13.325-11.017-30.621-4.975-46.48-4.745-3.966-11.372-6.427-18.241-6.64-7.088 9.588-8.915 22.823-3.317 34.86 5.018 10.663 15.419 17.32 26.533 18.26zm46.432-23.24c8.05-15.908 5.58-33.647-3.317-46.48-16.421.468-31.517 9.622-38.141 24.9-8.024 15.897-5.554 33.636 3.317 46.48 16.436-.468 31.543-9.633 38.141-24.9.671-.209-6.598 15.267 0 0zm116.08 91.3c-12.694.552-24.107 4.743-33.166 11.62-.116 1.515-.072 2.868 0 4.98-.072 42.224-29.039 78.677-67.99 89.64 33.625-10.63 58.369-42.715 58.04-79.68.329-48.326-38.177-86.32-84.573-86.32-46.593 0-85.088 37.994-84.573 86.32-.515 37.031 24.317 69.161 58.04 79.68-39.027-10.841-68.104-47.35-67.99-89.64-.114-5.948.305-11.059 1.658-16.6-30.2.973-54.724 25.386-54.724 56.44 0 29.968 24.899 54.78 54.724 54.78.355 0 .554-.022 0 0h218.894c.873-.022 1.06 0 1.658 0h1.658c29.567-1.508 53.065-25.699 53.065-54.78-.011-31.309-24.932-55.888-54.724-56.44zm1081.724 23.22h-39v86h39c23.076 0 41-19.393 41-43 0-23.977-18.466-43-41-43zm-5 70h-17v-54h17c15.169 0 26 12.014 26 27 0 14.977-10.84 27-26 27zm-107-12c.284 7.42-5.606 13.234-13 13-7.376.234-13.284-5.589-13-13v-58h-18v57c0 17.331 13.841 31 31 31s31-13.669 31-31v-57h-18v58zm-133-60c-24.387 0-45 19.995-45 45 0 24.816 20.613 45 45 45 25.387 0 46-20.184 46-45 0-25.005-20.613-45-46-45zm0 73c-15.365 0-27-12.684-27-28s11.635-28 27-28 27 12.684 27 28c0 15.307-11.635 28-27 28zm-119-71h-18v86h53v-16h-35v-70zm-129 43c0 25.014 20.677 45 46 45 4.69 0 9.431-.901 14-2v-19c-3.291 2.095-8.412 4.087-14 4-15.805.087-27.517-12.637-28-28 .483-15.363 12.195-28.087 28-28 5.597-.087 10.528 1.905 14 4v-19c-4.569-1.279-9.31-2-14-2-25.323 0-46 19.995-46 45zm-119 42h18l7-15h28l7 15h18l-39-88-39 88zm30-30l9-21 9 21h-18zm-116-1l-30-57-17 88h16l8-41 23 43 22-43 8 41h16l-17-88-29 57zm-120-54h-18v86h53v-16h-35v-70zm-141 85h18l7-15h28l7 15h18l-39-88-39 88zm30-30l9-21 9 21h-18z" fill="#9E9EA8" sketch:type="MSShapeGroup"/><path d="M462.008 73.539c-1.078.516-2.367.996-3.867 1.441-1.5.445-3.117.844-4.852 1.195-1.734.352-3.504.621-5.309.809-1.805.188-3.551.281-5.238.281-4.828 0-9.258-.797-13.289-2.391-4.031-1.594-7.488-3.82-10.371-6.68-2.883-2.859-5.133-6.27-6.75-10.23-1.617-3.961-2.426-8.309-2.426-13.043 0-5.344.75-10.16 2.25-14.449s3.633-7.945 6.398-10.969c2.766-3.023 6.117-5.355 10.055-6.996 3.938-1.641 8.367-2.461 13.289-2.461 1.875 0 3.609.105 5.203.316 1.594.211 3.129.504 4.605.879 1.477.375 2.941.844 4.395 1.406 1.453.563 2.953 1.195 4.5 1.898v13.641c-1.828-1.219-3.527-2.238-5.098-3.059-1.57-.82-3.07-1.477-4.5-1.969-1.43-.492-2.812-.832-4.148-1.02-1.336-.188-2.707-.281-4.113-.281-2.906 0-5.578.527-8.016 1.582-2.438 1.055-4.523 2.543-6.258 4.465-1.734 1.922-3.082 4.219-4.043 6.891-.961 2.672-1.441 5.648-1.441 8.93 0 3.375.516 6.387 1.547 9.035 1.031 2.648 2.508 4.887 4.43 6.715 1.922 1.828 4.23 3.234 6.926 4.219 2.695.984 5.707 1.477 9.035 1.477 2.719 0 5.437-.352 8.156-1.055 2.719-.703 5.695-1.781 8.93-3.234v12.656zm159.992 17.508h-12.58v-14.644h-42.771v14.644h-12.65v-26.245h5.311l26.068-54.755h7.128l24.251 54.755h5.242v26.245zm-19-27l-15.36-34-15.64 34h31zm123.953-18.538c2.088 12.895 9.418 19.343 21.992 19.343 4.033 0 7.9-.677 11.601-2.032 3.701-1.355 7.473-3.247 11.316-5.677v12.335c-1.993 1.308-3.95 2.43-5.872 3.364-1.922.934-3.914 1.717-5.978 2.348-2.064.631-4.258 1.098-6.583 1.402-2.325.304-4.887.456-7.686.456-5.077 0-9.584-.946-13.522-2.838-3.938-1.892-7.259-4.427-9.964-7.604-2.704-3.177-4.757-6.833-6.156-10.968-1.4-4.135-2.1-8.422-2.1-12.86 0-4.906.747-9.368 2.242-13.386 1.495-4.018 3.594-7.464 6.299-10.337 2.704-2.873 5.931-5.093 9.679-6.658 3.748-1.565 7.876-2.348 12.384-2.348 4.365 0 8.291.736 11.779 2.208 3.487 1.472 6.465 3.679 8.932 6.623 2.467 2.944 4.365 6.635 5.694 11.073 1.329 4.439 1.993 9.625 1.993 15.559h-46.047zm33.047-8.462c-.19-4.934-1.639-8.834-4.348-11.7-2.708-2.866-6.367-4.3-10.976-4.3-5.037 0-9.016 1.386-11.938 4.159-2.922 2.772-4.835 6.72-5.738 11.841h33zm134.704-27h4.624l27.672 66h-13.661l-16.744-42.64-17.514 42.64h-14.081l29.704-66zm158.01 26.842v-3.434c0-4.065-.97-6.973-2.91-8.725-1.94-1.752-4.897-2.628-8.872-2.628-3.549 0-7.086.853-10.611 2.558-3.525 1.705-6.849 4.404-9.972 8.095v-13.947c5.063-5.84 12.279-8.76 21.648-8.76 3.312 0 6.411.42 9.298 1.262 2.886.841 5.394 2.126 7.523 3.855 2.129 1.729 3.809 3.936 5.039 6.623 1.23 2.687 1.845 5.852 1.845 9.496v33.15c0 1.215.201 2.067.603 2.558.402.491 1.005.736 1.81.736.662 0 1.609-.304 2.839-.911s2.579-1.448 4.046-2.523v7.779c-1.467.981-2.756 1.787-3.868 2.418-1.112.631-2.141 1.133-3.087 1.507-.946.374-1.857.642-2.733.806-.875.164-1.81.245-2.804.245-2.839 0-5.051-.502-6.636-1.507s-2.685-2.698-3.3-5.081c-2.839 2.243-5.725 3.901-8.659 4.976-2.934 1.075-5.891 1.612-8.872 1.612-2.413 0-4.602-.432-6.565-1.297-1.964-.864-3.655-2.021-5.075-3.469-1.42-1.448-2.508-3.119-3.265-5.011-.757-1.892-1.136-3.89-1.136-5.992 0-2.944.544-5.443 1.632-7.499 1.088-2.056 2.602-3.843 4.542-5.361 1.94-1.518 4.282-2.862 7.027-4.03 2.744-1.168 5.773-2.336 9.085-3.504l11.427-3.995zm.286 7.158c-2.8.93-5.467 1.884-8.002 2.86-2.534.977-4.767 2.047-6.698 3.209-1.931 1.163-3.464 2.465-4.598 3.907-1.134 1.442-1.702 3.116-1.702 5.023 0 1.302.241 2.512.724 3.628s1.134 2.07 1.955 2.86c.821.791 1.822 1.407 3.005 1.849 1.183.442 2.45.663 3.802.663 2.076 0 4.067-.465 5.974-1.395 1.907-.93 3.753-2.209 5.54-3.837v-18.767zm172-33v65h-12.952v-27.766h-32.096v27.766h-12.952v-65h12.952v25.647h32.096v-25.647h12.952zm128.95-1c5.054 0 9.722.818 14.004 2.453 4.282 1.635 7.979 3.913 11.091 6.833 3.112 2.92 5.534 6.389 7.265 10.407 1.731 4.018 2.597 8.41 2.597 13.176 0 5.093-.854 9.742-2.562 13.947-1.708 4.205-4.095 7.803-7.16 10.793-3.065 2.99-6.739 5.303-11.02 6.938-4.282 1.635-9.02 2.453-14.214 2.453-4.96 0-9.523-.853-13.688-2.558-4.165-1.705-7.756-4.065-10.775-7.078-3.018-3.014-5.37-6.611-7.054-10.793-1.685-4.182-2.527-8.749-2.527-13.701 0-4.626.866-8.936 2.597-12.93 1.731-3.995 4.13-7.476 7.195-10.442 3.065-2.967 6.668-5.291 10.81-6.973 4.141-1.682 8.622-2.523 13.442-2.523zm-.108 12c-3.008 0-5.792.536-8.353 1.609s-4.782 2.553-6.661 4.442c-1.88 1.889-3.337 4.139-4.37 6.75-1.034 2.612-1.551 5.456-1.551 8.534 0 3.404.505 6.506 1.516 9.304 1.01 2.798 2.444 5.188 4.3 7.17 1.856 1.982 4.065 3.509 6.626 4.582s5.393 1.609 8.494 1.609c3.384 0 6.438-.525 9.164-1.574s5.04-2.542 6.943-4.477c1.903-1.935 3.372-4.29 4.406-7.065 1.034-2.775 1.551-5.911 1.551-9.409 0-3.125-.552-5.993-1.657-8.604-1.104-2.612-2.632-4.873-4.582-6.785-1.95-1.912-4.276-3.404-6.979-4.477-2.702-1.073-5.651-1.609-8.847-1.609z" fill="#C0C0CC" sketch:type="MSShapeGroup"/></g></svg>
